!!!COM: Merulo, Claudio
!!!CDT:
!!!PTL: Corona de madrigali a sei voci
!!!PPP: Venice
!!!PPR: Heirs of G. Scotto
!!!PDT: 1579
!!!PUB-format: anthology
!!!RISM: 1579-2
!!!rime: 333
!!!OTL: Gelo ha Madonna il seno
!!!AGN: Madrigal
!!!SCT: Trm0333b
!!!SCA: Trm0333b
!!!original-voices: 6
!!!extant-voices: 6
!!!complete: Y
!!!final: A
**kern	**text	**kern	**text	**kern	**text	**kern	**text	**kern	**text	**kern	**text
*part6	*part6	*part5	*part5	*part4	*part4	*part3	*part3	*part2	*part2	*part1	*part1
*staff6	*staff6	*staff5	*staff5	*staff4	*staff4	*staff3	*staff3	*staff2	*staff2	*staff1	*staff1
*I"Basso	*	*I"Quinto	*	*I"Tenore	*	*I"Alto	*	*I"Sesto	*	*I"Canto	*
*I'B	*	*I'V	*	*I'T	*	*I'A	*	*I'VI	*	*I'C	*
*oclefF3	*	*oclefC3	*	*oclefC3	*	*oclefC2	*	*oclefG2	*	*oclefG2	*
*clefF4	*	*clefGv2	*	*clefGv2	*	*clefG2	*	*clefG2	*	*clefG2	*
*k[]	*	*k[]	*	*k[]	*	*k[]	*	*k[]	*	*k[]	*
*M4/2	*	*M4/2	*	*M4/2	*	*M4/2	*	*M4/2	*	*M4/2	*
*omet(C)	*	*omet(C)	*	*omet(C)	*	*omet(C)	*	*omet(C)	*	*omet(C)	*
=1	=1	=1	=1	=1	=1	=1	=1	=1	=1	=1	=1
0r	.	0r	.	0r	.	1a	Ge-	1ee	Ge-	2r	.
.	.	.	.	.	.	.	.	.	.	2a	Ge-
.	.	.	.	.	.	2g#X	-lo ha	2ee	-lo ha	2b	-lo ha
.	.	.	.	.	.	2a	Ma-	2ee	Ma-	2cc	Ma-
=2	=2	=2	=2	=2	=2	=2	=2	=2	=2	=2	=2
0r	.	0r	.	0r	.	2f	-don-	2dd	-don-	2a	-don-
.	.	.	.	.	.	2e	-n'il	2ee	-n'il	2g	-n'il
.	.	.	.	.	.	1d	se-	1ff	se-	4a	se-
.	.	.	.	.	.	.	.	.	.	8bL	.
.	.	.	.	.	.	.	.	.	.	8ccJ	.
.	.	.	.	.	.	.	.	.	.	[2dd	.
=3	=3	=3	=3	=3	=3	=3	=3	=3	=3	=3	=3
1A	Ge-	2r	.	1e	Ge-	1a	-no,	1ee	-no,	2dd]	.
.	.	2A	Ge-	.	.	.	.	.	.	2cc#X	-no,
2G#X	-lo ha	2B	-lo ha	2e	-lo ha	1r	.	1r	.	1r	.
2A	Ma-	2c	Ma-	2e	Ma-	.	.	.	.	.	.
=4	=4	=4	=4	=4	=4	=4	=4	=4	=4	=4	=4
2F	-don-	2A	-don-	2d	-don-	0r	.	0r	.	0r	.
2E	-n'il	2G	-n'il	2e	-n'il	.	.	.	.	.	.
1D	se-	4A	se-	1f	se-	.	.	.	.	.	.
.	.	8BL	.	.	.	.	.	.	.	.	.
.	.	8cJ	.	.	.	.	.	.	.	.	.
.	.	[2d	.	.	.	.	.	.	.	.	.
=5	=5	=5	=5	=5	=5	=5	=5	=5	=5	=5	=5
1A	-no,	2d]	.	1e	-no,	2r	.	2r	.	0r	.
.	.	2c#X	-no,	.	.	4r	.	2ee	e	.	.
.	.	.	.	.	.	4e	e	.	.	.	.
1r	.	1r	.	4r	.	4f	fiam-	2dd	fiam-	.	.
.	.	.	.	4B	e	4g	-m'il	.	.	.	.
.	.	.	.	4c	fiam-	2a	vol-	2cc	-m'il	.	.
.	.	.	.	4d	-m'il	.	.	.	.	.	.
=6	=6	=6	=6	=6	=6	=6	=6	=6	=6	=6	=6
2E	e	4r	.	2e	vol-	2g	-to,	4b	vol-	1r	.
.	.	4e	e	.	.	.	.	2cc	.	.	.
4F	fiam-	2d	fiam-	4A	-to,	2r	.	.	.	.	.
4G	-m'il	.	.	4d	e	.	.	4b	.	.	.
2A	vol-	2c	-m'il	4f	fiam-	1r	.	2cc	-to,	2r	.
.	.	.	.	4e	-m'il	.	.	.	.	.	.
4.E	-to,	4B	vol-	2g	vol-	.	.	2r	.	2ee	e
.	.	[4c	.	.	.	.	.	.	.	.	.
8F	.	.	.	.	.	.	.	.	.	.	.
=7	=7	=7	=7	=7	=7	=7	=7	=7	=7	=7	=7
2G	.	4c]	.	1g	-to,	4r	.	2r	.	2dd	fiam-
.	.	4B	.	.	.	4d	e	.	.	.	.
2r	.	2c	-to;	.	.	4e	fiam-	2ee	e	2cc	-m'il
.	.	.	.	.	.	4f	-m'il	.	.	.	.
4r	.	1r	.	4r	.	2g	vol-	2dd	fiam-	2b	vol-
4G	e	.	.	4B	<e	.	.	.	.	.	.
4A	fiamm'	.	.	4c	fiam-	2e	-to;	2cc	-m'il	[2a	.
4A	il	.	.	4d	-m'il	.	.	.	.	.	.
=8	=8	=8	=8	=8	=8	=8	=8	=8	=8	=8	=8
1E	vol-	2r	.	2e	vol-	1r	.	1b	vol-	4a]	.
.	.	.	.	.	.	.	.	.	.	8g#iL	.
.	.	.	.	.	.	.	.	.	.	8f#iJ	.
.	.	2e	Io	2B	-to;>	.	.	.	.	2g#i	.
1A	-to;	1e	son	2r	.	2r	.	2cc	-to;	1a	-to;
.	.	.	.	2c	Io	2cc	Io	2ee	Io	.	.
=9	=9	=9	=9	=9	=9	=9	=9	=9	=9	=9	=9
2r	.	1.g	ghiac-	2.c	son	1cc	son	1ee	son	2r	.
2C	Io	.	.	.	.	.	.	.	.	2ee	Io
.	.	.	.	4d	.	.	.	.	.	.	.
1C	son	.	.	2e	.	1cc	ghiac-	[1gg	ghiac-	1ee	son
.	.	2g	-cio	[2g	ghiac-	.	.	.	.	.	.
=10	=10	=10	=10	=10	=10	=10	=10	=10	=10	=10	=10
1G	ghiac-	2d	di	2g]	.	1b	-cio	2gg]	.	1dd	ghiac-
.	.	1g	fo-	1d	-cio	.	.	2gg	-cio	.	.
2G	-cio	.	.	.	.	2b	di	2dd	di	2gg	-cio
2C	di	2g	-re	2c	di	[2cc	fo-	[2gg	fo-	2ee	di
=11	=11	=11	=11	=11	=11	=11	=11	=11	=11	=11	=11
*	*	*	*	*lig	*	*	*	*	*	*	*
1G	fo-	2r	.	1d	fo-	4cc]	.	4gg]	.	1dd	fo-
.	.	.	.	.	.	8bL	.	4dd	.	.	.
.	.	.	.	.	.	8aJ	.	.	.	.	.
.	.	1G	E	.	.	2b	.	2.gg	.	.	.
*	*	*	*	*col	*	*	*	*	*	*	*
1C	-re	.	.	2.c	.	1cc	-re	.	.	1ee	-re
*	*	*	*	*Xlig	*	*	*	*	*	*	*
*	*	*	*	*Xcol	*	*	*	*	*	*	*
.	.	.	.	.	.	.	.	4ff	.	.	.
.	.	[2g	fo-	.	.	.	.	4ee	.	.	.
.	.	.	.	4B	.	.	.	4dd	.	.	.
=12	=12	=12	=12	=12	=12	=12	=12	=12	=12	=12	=12
1r	.	4g]	.	1A	.	1r	.	1cc	.	2r	.
.	.	8f#iL	.	.	.	.	.	.	.	.	.
.	.	8eJ	.	.	.	.	.	.	.	.	.
.	.	4f#X	.	.	.	.	.	.	.	2a	E
.	.	4f#i	-c'ho	.	.	.	.	.	.	.	.
2r	.	4g	den-	1G	-re	2r	.	1b	-re	2.dd	fo-
.	.	4d	-tr'ac-	.	.	.	.	.	.	.	.
2G	E	2g	-col-	.	.	2d	E	.	.	.	.
.	.	.	.	.	.	.	.	.	.	8ccL	.
.	.	.	.	.	.	.	.	.	.	8bJ	.
=13	=13	=13	=13	=13	=13	=13	=13	=13	=13	=13	=13
2.c	fo-	0g	-to,	1r	.	2.e	fo-	2r	.	4cc	.
.	.	.	.	.	.	.	.	.	.	4g	-c'ho
.	.	.	.	.	.	.	.	2ee	E	4cc	den-
8BL	.	.	.	.	.	8dL	.	.	.	4cc	-tr'ac-
8AJ	.	.	.	.	.	8cJ	.	.	.	.	.
4G	.	.	.	2r	.	4d	.	2.gg	fo-	2.b	-col-
4G	-c'ho	.	.	.	.	4d	-c'ho	.	.	.	.
2E	den-	.	.	2B	E	4e	den-	.	.	.	.
.	.	.	.	.	.	4e	-tr'ac-	8ff#iL	.	8aL	.
.	.	.	.	.	.	.	.	8eeJ	.	8gJ	.
=14	=14	=14	=14	=14	=14	=14	=14	=14	=14	=14	=14
2D	-tr'ac-	2r	.	2.d	fo-	2A	-col-	4ff#X	.	2a	.
.	.	.	.	.	.	.	.	4ff#i	-c'ho	.	.
2G	-col-	2d	E	.	.	4G	-to,	4gg	den-	2b	-to.
.	.	.	.	8cL	.	2g	E	4gg	-tr'ac-	.	.
.	.	.	.	8BJ	.	.	.	.	.	.	.
1C	-to.	2.g	fo-	4c	.	.	.	1ee	-col-	1r	.
.	.	.	.	4G	-c'ho	2cc	fo-	.	.	.	.
.	.	.	.	4c	den-	.	.	.	.	.	.
.	.	8f#XL	.	4c	-tr'ac-	4cc	-c'ho	.	.	.	.
.	.	8eJ	.	.	.	.	.	.	.	.	.
=15	=15	=15	=15	=15	=15	=15	=15	=15	=15	=15	=15
1r	.	4f#i	.	2d	-col-	4a	den-	1dd	-to.	1r	.
.	.	4f#i	-c'ho	.	.	4a	-tr'ac-	.	.	.	.
.	.	4g	den-	2G	-to.	2b	-col-	.	.	.	.
.	.	4g	-tr'ac-	.	.	.	.	.	.	.	.
2r	.	2e	-col-	2.c	Que-	1g	-to.	1r	.	2r	.
[2C	Que-	2e	-to.	.	.	.	.	.	.	[2ee	Que-
.	.	.	.	4c	-st'a-	.	.	.	.	.	.
=16	=16	=16	=16	=16	=16	=16	=16	=16	=16	=16	=16
4C]	.	2.g	Que-	2c	-vien	2.cc	Que-	2r	.	4ee]	.
4C	-st'a-	.	.	.	.	.	.	.	.	4ee	-st'a-
2C	-vien	.	.	2G	per-	.	.	2.gg	Que-	2ee	-vien
.	.	4g	-st'a-	.	.	4cc	-st'a-	.	.	.	.
2G	per-	2g	-vien	1B	-ch'A-	2b	-vien	.	.	2dd	per-
.	.	.	.	.	.	.	.	4gg	-st'a-	.	.
2E	-ch'A-	2g	per-	.	.	2b	per-	2gg	-vien	2ee	-ch'A-
=17	=17	=17	=17	=17	=17	=17	=17	=17	=17	=17	=17
*lig	*	*	*	*	*	*	*	*	*	*	*
1A	-mo-	2c	-ch'A-	2.c	-mo-	2e	-ch'A-	2ee	per-	1cc	-mo-
.	.	2.e	-mo-	.	.	2.a	-mo-	2ee	-ch'A-	.	.
.	.	.	.	4d	.	.	.	.	.	.	.
1E	.	.	.	1e	.	.	.	1ee	-mo-	1b	-re
*Xlig	*	*	*	*	*	*	*	*	*	*	*
.	.	4d	.	.	.	8g#iL	.	.	.	.	.
.	.	.	.	.	.	8f#iJ	.	.	.	.	.
.	.	2B	.	.	.	2g#i	.	.	.	.	.
=18	=18	=18	=18	=18	=18	=18	=18	=18	=18	=18	=18
1A	-re	1c	-re	2e	-re	1a	-re	2ee	-re	2r	.
.	.	.	.	4r	.	.	.	2cc	Nel-	2ee	Nel-
.	.	.	.	4a	Nel-	.	.	.	.	.	.
1r	.	1r	.	4a	-la	1r	.	4cc	-la	4ee	-la
.	.	.	.	4e	sua	.	.	4cc	sua	4ee	sua
.	.	.	.	2g	fron-	.	.	[2b	fron-	2dd	fron-
=19	=19	=19	=19	=19	=19	=19	=19	=19	=19	=19	=19
0r	.	2r	.	2G	-t'al-	0r	.	4b]	.	2dd	-t'al-
.	.	.	.	.	.	.	.	4b	-t'al-	.	.
.	.	2e	Nel-	4.A	-ber-	.	.	2a	-ber-	1cc	-ber-
.	.	.	.	8B	.	.	.	.	.	.	.
.	.	4e	-la	2c	.	.	.	2.g	-ga	.	.
.	.	4e	sua	.	.	.	.	.	.	.	.
.	.	2d	fron-	2G	-ga,	.	.	.	.	2b	-ga
.	.	.	.	.	.	.	.	4f	.	.	.
=20	=20	=20	=20	=20	=20	=20	=20	=20	=20	=20	=20
2A	Nel-	4c	-te,	4r	.	2cc	Nel-	2e	.	0r	.
.	.	4A	Nel-	4e	Nel-	.	.	.	.	.	.
4A	-la	4a	-la	4e	-la	4cc	-la	2r	.	.	.
4E	sua	4g	sua	4e	sua	4cc	sua	.	.	.	.
2G	fron-	2g	fron-	2d	fron-	2.b	fron-	1r	.	.	.
2G	-t'al-	2g	-t'al-	2d	-t'al-	.	.	.	.	.	.
.	.	.	.	.	.	4b	-t'al-	.	.	.	.
=21	=21	=21	=21	=21	=21	=21	=21	=21	=21	=21	=21
2.A	-ber-	2.e	-ber-	1c	-ber	2.a	-ber-	1r	.	2ee	e
.	.	.	.	.	.	.	.	.	.	4cc	nel
4A	-ga e	4e	-ga e	.	.	4a	-ga e	.	.	4a	mio
2E	nel	2e	nel	2B	ga	2g#X	nel	2ee	e	2b	pet-
2A	mio	2e	mio	2r	.	2a	mio	4cc	nel	2cc	-to,
.	.	.	.	.	.	.	.	4a	mio	.	.
=22	=22	=22	=22	=22	=22	=22	=22	=22	=22	=22	=22
1G	pet-	4g	pet-	2r	.	1b	pet-	1dd	pet-	4r	.
.	.	8fL	.	.	.	.	.	.	.	4gg	e
.	.	8eJ	.	.	.	.	.	.	.	.	.
.	.	2d	.	2g	e	.	.	.	.	4gg	nel
.	.	.	.	.	.	.	.	.	.	4ff	mio
1C	-to,	2c	-to,	4g	nel	2cc	-to,	2cc	-to,	4.ee	pet-
.	.	.	.	4f	mio	.	.	.	.	.	.
.	.	.	.	.	.	.	.	.	.	8dd	.
.	.	4r	.	2e	pet-	2g	e	2r	.	[2cc	.
.	.	4c	e	.	.	.	.	.	.	.	.
=23	=23	=23	=23	=23	=23	=23	=23	=23	=23	=23	=23
1r	.	2G	nel	1d	-to	4g	nel	2gg	e	4cc]	.
.	.	.	.	.	.	4d	mio	.	.	8bL	.
.	.	.	.	.	.	.	.	.	.	8aJ	.
.	.	2G	mio	.	.	2g	pet-	4gg	nel	2b	.
.	.	.	.	.	.	.	.	4ff	mio	.	.
2r	.	2c	pet-	4r	.	2g	-to	2ee	pet-	2cc	-to
.	.	.	.	4e	Né	.	.	.	.	.	.
2C	Né	4c	-to	2g	mai,	4r	.	2ee	-to,	4r	.
.	.	4g	Né	.	.	4cc	Né	.	.	4ee	Né
=24	=24	=24	=24	=24	=24	=24	=24	=24	=24	=24	=24
2G	mai	2g	mai	1r	.	2b	mai	0r	.	2dd	mai
2A	can-	2e	can-	.	.	4.a	can-	.	.	2cc	can-
.	.	.	.	.	.	8a	-gia	.	.	.	.
4F	-gia	4f	-gia	2r	.	4a	ri-	.	.	4cc	-gia
4G	ri-	4d	ri-	.	.	2g	-cet-	.	.	4b	ri-
2A	-cet-	2c	-cet-	4r	.	.	.	.	.	2cc	-cet-
.	.	.	.	4A	Né	4f#i	.	.	.	.	.
=25	=25	=25	=25	=25	=25	=25	=25	=25	=25	=25	=25
0G	-to	0d	-to	4B	mai	0g	-to	4r	.	2b	-to,
.	.	.	.	4c	can-	.	.	4g	Né	.	.
.	.	.	.	4d	-gia	.	.	4b	mai	4r	.
.	.	.	.	4e	ri-	.	.	4cc	can-	4g	can-
.	.	.	.	4d	-cet-	.	.	4dd	-gia	4b	-gia
.	.	.	.	2c	.	.	.	4ee	ri-	4cc	ri-
.	.	.	.	.	.	.	.	2dd	-cet-	2dd	-cet-
.	.	.	.	4B	.	.	.	.	.	.	.
=26	=26	=26	=26	=26	=26	=26	=26	=26	=26	=26	=26
2r	.	4r	.	2c	-to	2r	.	1g	-to	0ee	-to
.	.	2c	Sì	.	.	.	.	.	.	.	.
2.C	Sì	.	.	4r	.	2.cc	Sì	.	.	.	.
.	.	4c	ch'io	2e	Sì	.	.	.	.	.	.
.	.	2.g	l'hab-	.	.	.	.	1r	.	.	.
4C	ch'io	.	.	4e	ch'io	4cc	ch'io	.	.	.	.
2c	l'hab-	.	.	2e	l'hab-	2cc	l'hab-	.	.	.	.
.	.	4g	-bia	.	.	.	.	.	.	.	.
=27	=27	=27	=27	=27	=27	=27	=27	=27	=27	=27	=27
4c	-bia	2g	ne	4e	-bia	4cc	-bia	1r	.	1r	.
4G	ne	.	.	4d	ne	4b	ne	.	.	.	.
2A	gl'oc-	2e	gl'oc-	2c	gl'oc-	2a	gl'oc-	.	.	.	.
2E	-chi	2e	-chi	2B	-chi	2g#X	-chi,	2r	.	2r	.
2r	.	4r	.	2r	.	4r	.	[2ee	Sì	4r	.
.	.	[4A	Sì	.	.	4a	Sì	.	.	[4cc	Sì
=28	=28	=28	=28	=28	=28	=28	=28	=28	=28	=28	=28
0r	.	4A]	.	0r	.	4a	ch'io	4ee]	.	4cc]	.
.	.	4A	ch'io	.	.	2a	l'hab-	4ee	ch'io	4cc	ch'io
.	.	2A	l'hab-	.	.	.	.	2ee	l'hab-	2cc	l'hab-
.	.	.	.	.	.	4a	-bia	.	.	.	.
.	.	4c	-bia	.	.	4e	ne	4ee	-bia	4g	-bia
.	.	4B	ne	.	.	2g	gl'oc-	4dd	ne	4g	ne
.	.	2A	gl'oc-	.	.	.	.	2cc	gl'oc-	2a	gl'oc-
.	.	.	.	.	.	4f#i	.	.	.	.	.
=29	=29	=29	=29	=29	=29	=29	=29	=29	=29	=29	=29
2r	.	2G	-chi	4r	.	1g	-chi	1b	-chi	2d	-chi
.	.	.	.	4d	el-	.	.	.	.	.	.
4r	.	4r	.	4e	-la	.	.	.	.	2r	.
4G	el-	4B	el-	4d	nel	.	.	.	.	.	.
4A	-la	4c	-la	8fL	co-	1r	.	1r	.	1r	.
.	.	.	.	8eJ	.	.	.	.	.	.	.
4G	nel	4B	nel	2e	.	.	.	.	.	.	.
2F	co-	2A	co-	.	.	.	.	.	.	.	.
.	.	.	.	4d	.	.	.	.	.	.	.
=30	=30	=30	=30	=30	=30	=30	=30	=30	=30	=30	=30
2E	-re,	2B	-re,	2e	-re,	4r	.	2r	.	4r	.
.	.	.	.	.	.	4g	el-	.	.	4b	el-
2r	.	2r	.	2r	.	4a	-la	4r	.	4cc	-la
.	.	.	.	.	.	4g	nel	4ee	el-	4b	nel
2r	.	2d	<el-	2r	.	1f	co-	4ff	-la	1a	co-
.	.	.	.	.	.	.	.	4ee	nel	.	.
2D	el-	4d	-la	[2A	el-	.	.	[2dd	co-	.	.
.	.	4d	nel	.	.	.	.	.	.	.	.
=31	=31	=31	=31	=31	=31	=31	=31	=31	=31	=31	=31
2A	-la	2e	co-	2A]	.	1e	-re,	4dd]	.	1a	-re,
.	.	.	.	.	.	.	.	8ccL	.	.	.
.	.	.	.	.	.	.	.	8bJ	.	.	.
2A	nel	4A	-re,>	2a	-la	.	.	2cc	.	.	.
.	.	4A	el-	.	.	.	.	.	.	.	.
1D	co-	4A	-la	4f#X	nel	2r	.	1dd	-re,	2r	.
.	.	4B	nel	2g	co-	.	.	.	.	.	.
.	.	2A	co-	.	.	2a	el-	.	.	[2dd	el-
.	.	.	.	4f#i	.	.	.	.	.	.	.
=32	=32	=32	=32	=32	=32	=32	=32	=32	=32	=32	=32
1G	-re	2G	-re,	2g	-re,	2b	-la	2r	.	2dd]	.
.	.	1B	el-	2d	el-	2g	nel	1b	el-	1gg	-la
1E	<el-	.	.	2e	-la	2.g	co-	.	.	.	.
.	.	[2e	-la	[2g	nel	.	.	2b	-la	2ee	nel
.	.	.	.	.	.	4f	.	.	.	.	.
=33	=33	=33	=33	=33	=33	=33	=33	=33	=33	=33	=33
2.C	-la	2e]	.	2g]	.	0e	.	2cc	nel	0ee	co-
.	.	2c	nel	2.e	co-	.	.	2.a	co-	.	.
4D	nel	.	.	.	.	.	.	.	.	.	.
1E	co-	1B	co-	.	.	.	.	.	.	.	.
.	.	.	.	4d	.	.	.	8g#iL	.	.	.
.	.	.	.	.	.	.	.	8f#iJ	.	.	.
.	.	.	.	2B	.	.	.	2g#i	.	.	.
=34	=34	=34	=34	=34	=34	=34	=34	=34	=34	=34	=34
0AAl	-re.>	0Al	-re.	0c#Xl	-re.	0el	-re.	0al	-re.	0eel	-re.
==	==	==	==	==	==	==	==	==	==	==	==
*-	*-	*-	*-	*-	*-	*-	*-	*-	*-	*-	*-
!!!system-decoration: [*]
!!!YEM:	Claudio Merulo, "Gelo ha Madonn' il seno," 1579 (Trm 333b; 11 Sep 2017) Tasso in Music Project (http://www.tassomusic.org) Copyright 2017 Emiliano Ricciardi
!!!RDF**kern: i = editorial accidental
!!!RDF**kern: l = terminal long
!!!ENC: Emiliano Ricciardi
!!!END: 2018
!!!EED: Donnelly, Daniel
!!!EEV: 2018/10/28
!!!YEC: Copyright 2018 Emiliano Ricciardi, All Rights Reserved
!!!ONB: Translated from MusicXML on 2018/10/28 and edited by Craig Stuart Sapp
!!@@BEGIN:	VERSEDATA
!!@SOLERTI:	333
!!@CATALOGNUM:	Trm0333
!!@LAST_MODIFIED: 2020/07/12
!!@TITLE:		Gelo ha Madonna il seno, e fiamma il volto
!!@GENRE:		madrigale
!!@MANUSRC:	A<sub>3</sub>, Amz, C, E<sub>1</sub>, E<sub>7</sub>, Flc<sub>2</sub>, I<sub>4</sub>, I<sub>5</sub>, M<sub>7</sub>, P<sub>4</sub>, V<sub>2</sub>, V<sub>8</sub>, V<sub>13/E1</sub>, W
!!@PRINTSRC:	8, 9, 11, 12, 13, 15, 20, 24, 29, 33, 67, 93, 141, 166, 169
!!@@BEGIN:	VERSES
!!@ABOUTIT:	Rende la ragione perché la sua donna sia amata ed egli amante.
!!@ABOUTEN:	He explains the reason why his lady is the beloved and he is the lover.
!!@EDITOR:	Solerti, Angelo
!!@EDITION_TITLE: Le Rime di Torquato Tasso
!!@EDITION_LOC:	Bologna
!!@EDITION_PUB:	Romagnoli-Dall’Acqua
!!@EDITION_DATE:  1898-1902
!!@EDITION_VOL:	2
!!@EDITION_PAGE:  381
!!@TRANSLATOR:	Emiliano Ricciardi and Amyrose McCue Gill
!!@VERSE:
!!	Gelo ha Madonna il seno, e fiamma il volto;
!!	Io son ghiaccio di fuore
!!	E 'l foco ho dentro accolto.
!!	Questo avvien, perch'Amore
!!	Ne la sua fronte alberga e nel mio petto,
!!	Né mai cangia ricetto
!!	Sì ch'io l'abbia ne gli occhi, ella nel core.
!!@TVERSE:
!!	Ice has my lady [in] her breast, and flame [in] her face;
!!	I am ice on the outside
!!	And fire I have embraced within.
!!	This happens because Love
!!	In her forehead dwells and in my heart,
!!	Nor ever does it change refuge
!!	So that I have it in my eyes, she in her heart.
!!@@END:		VERSES
!!@OTHER_CRIT_ED:   Torquato Tasso, <i>Rime d’amore (secondo il codice
!!		Chigiano L VIII 302)</i>, eds. Franco Gavazzeni and
!!		Vercingetorige Martignone, vol. 4 of <i>Edizione
!!		Nazionale delle opere di Torquato Tasso</i>
!!		(Alessandria: Edizioni Dell’Orso, 2004), 170.
!!@ATTRIBUTION_ABOUT:	Secure
!!		<br>
!!		Among other authoritative sources (see Literary
!!		Sources), this poem appears in the autograph Chigiano
!!		L.VIII.302 (Biblioteca Vaticana, Rome), compiled
!!		around 1584&ndash;85.
!!@DATING:	In or before 1578
!!	<br>
!!	The earliest datable appearance of this poem is in a musical setting by the Veronese composer Paolo Bellasio, published in 1578 (see Musical Settings).
!!@DEDICATEE:
!!@COMMENTARY:
!!@@END:		VERSEDATA
!!@@BEGIN:	SETTING
!!@CATALOGNUM:	Trm0333b
!!@RIMETITLE:	Gelo ha Madonna il seno
!!@SOLERTI:	333
!!@COMPOSER:	Merulo, Claudio
!!@PRINCEPSFORMAT: anthology
!!@PRINCEPSTITLE:	Corona de madrigali a sei voci
!!@PRINCEPSLOC:	Vineggia
!!@NORMLOC:	Venice
!!@NORMPUB:	Heirs of G. Scotto
!!@NORMPUBSHORT:	Scotto
!!@PRINCEPSPUB:	Herede di G. Scotto
!!@PRINCEPSYEAR:	1579
!!@PRINCEPSRISM:	1579-2
!!@REPRINTS:	
!!@OVOICES:	6
!!@EXTANTVOICES:	6
!!@PARTBOOKS:	
!!@EXTPARTBOOKS:	
!!@OCLEFS:	G2,G2,C2,C3,C3,F3
!!@OMENSURATION:	C
!!@OKEYSIG:	-
!!@FINAL:	A
!!@TIMPEDITOR:	Donnelly, Daniel
!!@NOTE:		
!!@@END:		SETTING
